X: 0223
T: Lady Charlotte Bruce - 8x32S
P: Lady Charlotte Bruce
C: William Shepherd
B: Miss Milligan's Miscellany v.2 #23
B: Originally Ours v.1 p.182 #MMM-0223
Z: 2019 John Chambers <jc:trillian.mit.edu>
M: 4/4
L: 1/16
R: strathspey
K: A
%
E2 |:\
"A"A3B c3A "C#/A"e3c A3E | "Bm"F2Bc dcBA "E7"GB3 B3c |\
"A"A3B cA3 "C#/A"e3c A3E |1 "Bm"F2Bc "E7"BAGF "A"EA3 A2E2 :|2 "Bm"F2Bc "E7"BAGF "A"EA3 A2cB ||
"A"A3c e3c "C#/A"a3c e3c | "D"f3d "C#/A"e3c "B/E7"GB3 B3c |\
"A"A3c e3c "C#/A"a3c e3c | "Bm"f3d "E7"e3E "A"FA3 A3c |\
"A"A3c e3a "C#/A"agfg a3e |
"D"f3d "C#/A"cA3 "B7"BAGF "E7"EDCB, | "A"CA3 "Bm"DB3 "C#/A"Ec3 "D"Fd3 |\
[1 "E7"dcBA GFED "A"CA,3 A,2E2 :|[2 "E7"dcBA GFED "A"CA,3 A,4 |]
